frontend/ui/play/assets/images/mpchess/wN.svg

<?xml version="1.0" encoding="UTF-8"?>
<svg xmlns="http://www.w3.org/2000/svg" xmlns:xlink="http://www.w3.org/1999/xlink" width="150px" height="150px" viewBox="0 0 150 150" version="1.1">
<g id="surface1">
<path style="fill-rule:nonzero;fill:rgb(100%,100%,100%);fill-opacity:1;stroke-width:0.386043;stroke-linecap:butt;stroke-linejoin:miter;stroke:rgb(0%,0%,0%);stroke-opacity:1;stroke-miterlimit:4;" d="M 6.545023 294.149911 L 3.200967 294.149911 C 3.246969 292.882006 4.657956 292.208053 4.721929 291.597123 C 4.787099 290.984906 4.499104 290.826965 4.499104 290.826965 C 4.499104 290.826965 4.301915 291.562911 4.051057 291.712878 C 3.799959 291.863102 3.215103 292.004067 3.215103 292.004067 C 3.215103 292.004067 2.804913 292.373969 2.564118 292.347988 C 2.321885 292.323037 2.115113 291.745032 2.115113 291.745032 L 2.935014 290.439056 L 3.351913 289.513015 L 3.743894 289.084977 L 3.912091 288.45707 L 4.385055 289.009094 C 6.985882 289.009094 7.549893 292.361107 6.545023 294.148882 Z M 6.541908 294.177949 C 7.620095 294.177949 7.667056 295.036081 7.667056 295.672992 L 2.06911 295.672992 C 2.06911 295.022962 2.115113 294.177949 3.19306 294.177949 Z M 6.541908 294.177949 " transform="matrix(16.303413,0,0,15.185602,-3.538245,-4357.812167)"/>
</g>
</svg>

<svg xmlns="http://www.w3.org/2000/svg" width="10mm" height="10mm" viewBox="0 0 10 10"><g style="fill:#fff;fill-opacity:1"><g style="fill:#fff;fill-opacity:1;stroke-width:.09651081;stroke-miterlimit:4;stroke-dasharray:none"><path d="M6.545 294.15H3.201c.046-1.268 1.457-1.942 1.521-2.553.065-.612-.223-.77-.223-.77s-.197.736-.448.886-.836.291-.836.291-.41.37-.651.344c-.242-.025-.449-.603-.449-.603l.82-1.306.417-.926.392-.428.168-.628.473.552c2.601 0 3.165 3.352 2.16 5.14zm-.003.028c1.078 0 1.125.858 1.125 1.495H2.069c0-.65.046-1.495 1.124-1.495z" style="fill:#fff;fill-opacity:1;stroke:#000;stroke-width:.38604324;stroke-linecap:butt;stroke-linejoin:miter;stroke-miterlimit:4;stroke-dasharray:none;stroke-opacity:1" transform="matrix(1.07361 0 0 1 -.233 -286.97)"/></g></g></svg>
